assets/icons/functional/commerce/coins.svg

<svg width="32" height="32" viewBox="0 0 32 32" fill="none" xmlns="http://www.w3.org/2000/svg"><g id="Icon-Coins"><g clip-path="url(#clip0_12_6709)"><g id="size=md (32px)"><g id="Coins"><path id="Vector" d="M12 15C17.5228 15 22 12.9853 22 10.5C22 8.01472 17.5228 6 12 6C6.47715 6 2 8.01472 2 10.5C2 12.9853 6.47715 15 12 15Z" stroke="#101828" stroke-width="2" stroke-linecap="round" stroke-linejoin="round"/><path id="Vector_2" d="M2 10.5V15.5C2 17.9875 6.475 20 12 20C17.525 20 22 17.9875 22 15.5V10.5" stroke="#101828" stroke-width="2" stroke-linecap="round" stroke-linejoin="round"/><path id="Vector_3" d="M8 14.625V19.625" stroke="#101828" stroke-width="2" stroke-linecap="round" stroke-linejoin="round"/><path id="Vector_4" d="M22 12.0874C26.5625 12.5124 30 14.3249 30 16.4999C30 18.9874 25.525 20.9999 20 20.9999C17.55 20.9999 15.3 20.5999 13.5625 19.9499" stroke="#101828" stroke-width="2" stroke-linecap="round" stroke-linejoin="round"/><path id="Vector_5" d="M10 19.9125V21.5C10 23.9875 14.475 26 20 26C25.525 26 30 23.9875 30 21.5V16.5" stroke="#101828" stroke-width="2" stroke-linecap="round" stroke-linejoin="round"/><path id="Vector_6" d="M24 20.625V25.625" stroke="#101828" stroke-width="2" stroke-linecap="round" stroke-linejoin="round"/><path id="Vector_7" d="M16 14.625V25.625" stroke="#101828" stroke-width="2" stroke-linecap="round" stroke-linejoin="round"/></g></g></g></g><defs><clipPath id="clip0_12_6709"><rect width="32" height="32" rx="5" fill="white"/></clipPath></defs></svg>

<svg xmlns="http://www.w3.org/2000/svg" width="32" height="32" fill="none"><g clip-path="url(#a)" stroke="#101828" stroke-linecap="round" stroke-linejoin="round" stroke-width="2"><path d="M12 15c5.523 0 10-2.015 10-4.5S17.523 6 12 6 2 8.015 2 10.5 6.477 15 12 15Z"/><path d="M2 10.5v5C2 17.988 6.475 20 12 20s10-2.012 10-4.5v-5M8 14.625v5"/><path d="M22 12.088c4.563.425 8 2.237 8 4.412 0 2.488-4.475 4.5-10 4.5-2.45 0-4.7-.4-6.438-1.05"/><path d="M10 19.913V21.5c0 2.488 4.475 4.5 10 4.5s10-2.012 10-4.5v-5m-6 4.125v5m-8-11v11"/></g><defs><clipPath id="a"><rect width="32" height="32" fill="#fff" rx="5"/></clipPath></defs></svg>
